Papirus/16x16/apps/preferences-desktop-locale.svg

<svg xmlns="http://www.w3.org/2000/svg" width="16" height="16" version="1">
 <rect fill="#1e88e5" width="16" height="16" x="0" y="0" rx="1.143" ry="1.143"/>
 <path fill="#fff" d="m7.1104 8.6871 0.1963-0.7362c0.2209-0.7975 0.4295-1.7301 0.6258-2.5767h0.0491c0.2086 0.8344 0.4295 1.7792 0.6503 2.5767l0.18404 0.73619h-1.7055m2.5644 3.3129h1.9141l-2.5031-8h-2.1718l-2.5031 8h1.8405l0.4908-1.9018h2.4417l0.4908 1.9018"/>
</svg>

<svg xmlns="http://www.w3.org/2000/svg" width="16" height="16" version="1">
 <rect style="fill:#1e88e5" width="16" height="16" x="0" y="0" rx="1" ry="1"/>
 <path style="fill:#ffffff" d="M 7.9325,5.3742 H 7.9816 L 8.8159,8.6871 H 7.1104 Z M 11.589,12 9.0858,4 H 6.914 L 4.4109,12 H 6.2514 L 6.7422,10.098 H 9.1839 L 9.6747,12 Z"/>
</svg>
